X:85
T:Rakes of Mallow, The
R:polka
Z:id:hn-polka-85
M:2/4
L:1/8
K:G
GB GB|GB c/B/A/G/|FA FA|FA d/c/B/A/|GB GB|GB d>B|c/B/A/G/ F/G/A/c/|BG G2:|
|:gf/e/ dc|Bc d2|gf/e/ dc|Bc A2|gf/e/ dc|Bc d>B|c/B/A/G/ F/G/A/c/|BG G2:|
<end>
<start>
